X:1
T:Cseh nóta
C:Unknown
Z:Public Domain
L:1/8
M:4/4
K:C
V:1 treble nm="Voice"
%%MIDI program 52
V:1
"C" c4 c4 |"G" eeed- d4 | B2 d2 B2 d2 |"C" c4 z4 :|"F" f z3 f z3 | fggg g2 f2 |"C" e z3 e z3 | %7
 efff f2 e2 | c4 d2 e2 |"F" f4"C" e4 |"G" d^cd^c d2 e2 |"C" c4 z4 |] %12

